X: 37641
T: Snow On The Hills
R: reel
M: 4/4
K: Edorian
|E2 BE GEBE|DEBG AFDF|E2 BE GABc|dBAF AFDF|
E2 BE GEBE|DEBG AFDF|E3 F GABc|dBAF AFDF|
Be e2 gefd|Beed BAFA|Beef g2 fe|dBAF AFDF|
Be e2 gefd|Beed Bcde|f2 fe d/e/f dc|dBAF AFDF|

